!!!COM: Gonzaga, Francisca
!!!CDT: 1847/10/17-1935/02/28
!!!OTL: Faceiro
**kern	**kern	**dynam
*part1	*part1	*part1
*staff2	*staff1	*
*I"Piano	*	*
*clefF4	*clefG2	*
*k[b-]	*k[b-]	*
*M2/4	*M2/4	*
=1	=1	=1
*F:	*F:	*
!	!LO:TX:b:i:t=Hamônico	!
8.FFL	8r	p
!	!LO:TX:b:i:t=com chic	!
.	8F 8A 8c	.
16CJk	.	.
8.DL	8r	.
.	8F 8A 8c	.
16CJk	.	.
=	=	=
8.BBnL	16r	.
.	8FL 8A-X 8Bn	.
16DJk	(16fJk	.
8FL	16dLL	.
.	16B	.
8BBJ	16A-	.
.	16FJJ)	.
=	=	=
8.BB-L	16EKL	.
.	8G 8B-	.
16CJk	16EJk	.
8CCL	16cKL	.
.	8E	.
8CJ	.	.
.	16GJk 16B-	.
=	=	=
4FF	16ALL 16c	.
.	(16d	.
.	16c	.
.	16AJJ	.
16r	8F)	.
(16DLL	.	.
16C	8r	.
16AAJJ)	.	.
=	=	=
8.FFL	8r	.
.	8F 8A 8c	.
16CJk	.	.
8.DL	8r	.
.	8F 8A 8c	.
16CJk	.	.
=	=	=
8.GGL	8r	.
.	16cLL 16e	.
16CJk	16GJJ	.
8EL	[4g	.
8CJ	.	.
!!linebreak:original
=	=	=
8.GGL	8g]	.
.	16BnLL 16f	.
16DJk	16GJJ	.
8FL	4g	.
8GGJ	.	.
=	=	=
8CCL	4c	.
8CJ	.	.
4C 4E 4B-	4c 4e 4cc	f
=	=	=
8.FFL	8r	.
.	8F 8A 8c	.
16CJk	.	.
8.DL	8r	.
.	8F 8A 8c	.
16CJk	.	.
=	=	=
8.BBnL	16r	.
.	8FL 8A-X 8Bn	.
16DJk	16fJk	.
8FL	(16dLL	.
.	16B	.
8BBJ	16A-	.
.	16FJJ)	.
=	=	=
8.BB-L	16EKL	.
.	8G 8B-	.
16CJk	16EJk	.
8CCL	16cKL	.
.	8E	.
8CJ	.	.
.	16GJk 16B-	.
=	=	=
4FF	16ALL 16c	.
.	(16d	.
.	16c	.
.	16AJJ	.
16r	8F)	.
16DLL	.	.
16C	8r	.
16AAJJ	.	.
=	=	=
8.FFL	8r	.
.	8F 8A 8c	.
16CJk	.	.
8.DL	8r	.
.	8F 8A 8c	.
16CJk	.	.
!!linebreak:original
=	=	=
4D-X	8r	.
.	8F	.
4DD-X	4B- 4d-X 4f	.
=	=	=
4CC	8r	.
.	16ALL 16c	.
.	16FJJ	.
4C	8r	.
.	16B-LL 16c	.
.	16EJJ	.
=	=	=
[4FF	8r	.
.	8F	.
8FF]	8A 8c 8f	.
8r	8r	.
=||	=||	=||
*C:	*C:	*
*k[]	*k[]	*
!	!LO:TX:a:t=tutti	!
!	!LO:TX:a:t=Fine	!
16CCKL	8.gL 8.cc 8.ee 8.gg	f
8G 8c 8e	.	.
16GJk 16c 16e	16g^Jk 16cc 16ee 16gg	.
8EL	16r	.
.	(16eeLL	.
8GJ 8c 8e	16cc	.
.	16gJJ)	.
=	=	=
16CCKL	8.gL 8.cc 8.ee 8.gg	.
8G 8c 8e	.	.
16GJk 16c 16e	[16g^Jk [16cc [16ee [16gg	.
8EL	4g] 4cc] 4ee] 4gg]	.
8GJ 8c 8e	.	.
=	=	=
16CCKL	8.ccL 8.ee 8.gg 8.ccc	.
8G 8c 8e	.	.
16GJk 16c 16e	16cc^Jk 16ee 16gg 16ccc	.
8EL	16r	.
.	(16ggLL	.
8GJ 8c 8e	16ee	.
.	16ccJJ)	.
!!linebreak:original
=	=	=
16CCKL	8.ccL 8.ee 8.gg 8.ccc	.
8G 8c 8e	.	.
16GJk 16c 16e	[16cc^Jk [16ee [16gg [16ccc	.
8EL	4cc] 4ee] 4gg] 4ccc]	.
8GJ 8c 8e	.	.
=	=	=
16GGKL	8.bL 8.ff 8.bb	.
8G 8B 8f	.	.
16GJk 16B 16f	16b^Jk 16ff 16bb	.
8DL	8r	.
8GJ 8B 8f	8b	.
=	=	=
16GGKL	8.gL 8.b 8.gg	.
8G 8B 8f	.	.
16GJk 16B 16f	16g^Jk 16b 16gg	.
8GGL	16r	.
.	8ff#XL	.
8GJ 8B 8f	.	.
.	16ffnJk	.
=	=	=
16CKL	16eeKL	.
8G 8c 8e	8b	.
16GJk 16c 16e	16ccJk	.
8F#XL	8bbL	.
8FnJ	8aaJ	.
=	=	=
16E^KL	8.ggL	.
8G 8c 8e	.	.
16GJk 16c 16e	[16gg^Jk	.
8CL	4gg]	.
8GJ 8c 8e	.	.
=	=	=
16CCKL	8.gL 8.cc 8.gg	.
8G 8c 8e	.	.
16GJk 16c 16e	16g^Jk 16cc 16gg	.
8EL	16r	.
.	(16eeLL	.
8GJ 8c 8e	16cc	.
.	16gJJ)	.
=	=	=
16CCKL	8.gL 8.cc 8.ee 8.gg	.
8G 8c 8e	.	.
16GJk 16c 16e	[16g^Jk [16cc [16ee [16gg	.
8EL	4g] 4cc] 4ee] 4gg]	.
8GJ 8c 8e	.	.
!!linebreak:original
=	=	=
16CCKL	8.ccL 8.ee 8.gg 8.ccc	.
8G 8c 8e	.	.
16GJk 16c 16e	16ccJk 16ee 16gg 16ccc	.
8EL	16r	.
.	(16ggLL	.
8GJ 8c 8e	16ee	.
.	16ccJJ)	.
=	=	=
16CCKL	8.ccL 8.ee 8.gg 8.ccc	.
8G 8c 8e	.	.
16GJk 16c 16e	[16cc^Jk [16ee [16gg [16ccc	.
8EL	4cc] 4ee] 4gg] 4ccc]	.
8GJ 8c 8e	.	.
=	=	=
16FKL	8.ffL 8.bb	.
8A 8d 8f	.	.
16AJk 16d 16f	16ff^Jk 16bb	.
8FL	8r	.
8AJ 8d 8f	8ff 8aa	.
=	=	=
16EKL	8.gL 8.cc	.
8G 8c 8e	.	.
16GJk 16c 16e	16eeJk	.
8EL	8gL 8gg	.
8GJ 8c 8e	8g^J 8gg	.
=	=	=
16DKL	8.fL 8.b 8.ee	.
8F 8G 8B	.	.
16FJk 16G 16B	16fJk 16b 16ee	.
8GGL	8r	.
8FJ 8G 8B	8dd	.
=	=	=
4C 4E 4G	(16ccLL	.
.	16ccc	.
.	16bb-X	.
.	16ggJJ	.
4E 4G 4B-X 4c	16eeLL	.
.	16cc	.
.	16b-X	.
.	16gJJ)	.
!!pagebreak:original
=	=	=
(16eLL	2r	.
16c	.	.
16B-X	.	.
16GJJ	.	.
16ELL	.	.
16C	.	.
16BB-X	.	.
16GGJJ)	.	.
=||	=||	=||
*F:	*F:	*
*k[b-]	*k[b-]	*
8.FFL	8r	p
.	8F 8A 8c	.
16CJk	.	.
8.DL	8r	.
.	8F 8A 8c	.
16CJk	.	.
=	=	=
8.BBnL	16r	.
.	8FL 8A-X 8Bn	.
16DJk	(16fJk	.
8FL	16dLL	.
.	16B	.
8BBJ	16A-	.
.	16FJJ)	.
=	=	=
8.BB-L	16EKL	.
.	8G 8B-	.
16CJk	16EJk	.
8CCL	16cKL	.
.	8E	.
8CJ	.	.
.	16GJk 16B-	.
=	=	=
4FF	16ALL 16c	.
.	(16d	.
.	16c	.
.	16AJJ	.
16r	8F)	.
(16DLL	.	.
16C	8r	.
16AAJJ)	.	.
=	=	=
8.FFL	8r	.
.	8F 8A 8c	.
16CJk	.	.
8.DL	8r	.
.	8F 8A 8c	.
16CJk	.	.
!!linebreak:original
=	=	=
8.GGL	8r	.
.	16cLL 16e	.
16CJk	16GJJ	.
8EL	[4g	.
8CJ	.	.
=	=	=
8.GGL	8g]	.
.	16BnLL 16f	.
16DJk	16GJJ	.
8FL	4g	.
8GGJ	.	.
=	=	=
8CCL	4c	.
8CJ	.	.
4C^ 4E 4B-	4c^ 4e 4cc	f
=	=	=
8.FFL	8r	.
.	8F 8A 8c	.
16CJk	.	.
8.DL	8r	.
.	8F 8A 8c	.
16CJk	.	.
=	=	=
8.BBnL	16r	.
.	8FL 8A-X 8Bn	.
16DJk	(16fJk	.
8FL	16dLL	.
.	16B	.
8BBJ	16A-	.
.	16FJJ)	.
=	=	=
8.BB-L	16EKL	.
.	8G 8B-	.
16CJk	16EJk	.
8CCL	16cKL	.
.	8E	.
8CJ	.	.
.	16GJk 16B-	.
=	=	=
4FF	16ALL 16c	.
.	16d	.
.	16c	.
.	16AJJ	.
16r	8F	.
(16DLL	.	.
16C	8r	.
16AAJJ)	.	.
!!linebreak:original
=	=	=
8.FFL	8r	.
.	8F 8A 8c	.
16CJk	.	.
8.DL	8r	.
.	8F 8A 8c	.
16CJk	.	.
=	=	=
4D-X	8r	.
.	8F	.
4DD-X	4B- 4d-X 4f	.
=	=	=
4CC	8r	.
.	16ALL 16c	.
.	16FJJ	.
4C	8r	.
.	16B-LL 16c	.
.	16EJJ	.
=	=	=
[4FF	8r	.
.	8F	.
8FF]	8A 8c 8f	.
8r	8r	.
=||	=||	=||
*B-:	*B-:	*
*k[b-e-]	*k[b-e-]	*
!	!LO:TX:a:i:t=Com fageirice	!
8BBB-L	8FL 8B- 8d	p
8BB-J	8FJ 8B- 8d	.
8BBBnL	8A-XL 8Bn 8f	.
8BBnJ	8A-J 8B 8f	.
=	=	=
16CCKL	[4A [4e- [4f	.
8C	.	.
16FFJk	.	.
8FFL	4A] 4e-] 4f]	.
8FFJ	.	.
=	=	=
8BBB-L	8FL 8B- 8d	.
8BB-J	8FJ 8B- 8d	.
8BBBnL	8BnL 8d 8a	.
8BBnJ	8BJ 8d 8g	.
!!linebreak:original
=	=	=
16CCKL	[4A [4e- [4f	.
8C	.	.
16FFJk	.	.
(16FFLL	4A] 4e-] 4f]	.
16D	.	.
16C	.	.
16AAJJ)	.	.
=	=	=
8BBB-L	8FL 8B- 8d	.
8BB-J	8FJ 8B- 8d	.
8DDL	8B-L 8d 8f	.
8DJ	8B-J 8d 8f	.
=	=	=
16EE-KL	16e-KL 16g 16b-	.
8E-	8e- 8g 8b-	.
16GJk	16e-Jk 16g 16b-	.
8B-L	8e-L 8g 8b-	.
8GJ	8e-J 8g 8b-	.
=	=	=
16FFKL 16F	16e-KL 16f 16a	.
8E- 8F 8A	8e- 8f 8a	.
16E-Jk 16F 16A	16e-Jk 16f 16a	.
8FFL 8F	8e-L 8a 8dd	.
8E-J 8F 8A	8e-J 8a 8cc	.
=	=	=
16DD^KL 16D	4f^ 4b- 4dd 4ff	f
8F 8B- 8d	.	.
16FJk 16B- 16d	.	.
8FFL	8e-L 8a 8ee-	.
8E-J 8F 8A	8e-J 8a	.
=	=	=
8BBB-L	8FL 8B- 8d	p
8BB-J	8FJ 8B- 8d	.
8BBBnL	8A-XL 8Bn 8f	.
8BBnJ	8A-J 8B 8f	.
!!linebreak:original
=	=	=
16CCKL	16AKL 16e- 16f	.
8C	8AJ 8e- 8f	.
16FFJk	16r	.
(16AALL	4r	.
16C	.	.
16D	.	.
16FFJJ)	.	.
=	=	=
(8BB-L	(8FL 8B-	.
8D	8B- 8d	.
8F	8B- 8d 8a	.
8DJ)	8B-J) 8d 8g	.
=	=	=
16CKL	16AKL 16e- 16f	.
8C	8AJ 8e- 8f	.
16FFJk	16r	.
(16AALL	8AL 8e- 8f	.
16C	.	.
16D	8AJ 8e- 8f	.
16FFJJ)	.	.
=	=	=
8BBB-L	8FL 8B- 8d	.
8BB-J	8FJ 8B- 8d	.
8DDL	8B-L 8d 8f	.
8DJ	8B-J 8d 8f	.
=	=	=
16EE-KL	16e-KL 16g 16b-	.
8E-	8e- 8g 8b-	.
16GJk	16e-Jk 16g 16b-	.
8EnL	8enL 8g 8cc	.
8EJ	8eJ 8g 8cc#X	.
=	=	=
16FFKL 16F	16fKL 16b- 16dd	.
8F 8B- 8d	8f 8b- 8dd	.
16FJk 16B- 16d	16fJk 16b- 16dd	.
8FFL	8aL 8ee- 8ff	.
8FJ 8A 8e-	8aJ 8ee- 8ff	.
=	=	=
8BB-L	4b- 4dd 4ff 4bb-	.
8FJ 8B- 8d	.	.
*	*8va	*
4BBB-	4bb- 4ddd 4fff 4bbb-	.
*	*X8va	*
==	==	==
*-	*-	*-
!!!system-decoration: {(s1,s2)}
!!!AGN: Tango
!!!EED: Florian Moldaschl
!!!END: 2025/12/26
!!!ENC: Florian Moldaschl
!!!EEV: 2025/12/26
!!!title: @{OPR}, @{SCT} №@{ONM}